**kern	**kern
*staff2	*staff1
*clefF4	*clefG2
*k[b-e-a-]	*k[b-e-a-]
*M3/4	*M3/4
*c:	*c:
=	=
8c 8e- 8g	(16ccLL
.	16b
8r	16cc)
.	(16ddJJ
8c 8e- 8g	16ee-LL)
.	(16ff#
8r	16gg)
.	(16bbJJ
8.r	16cccLL)
.	(16ddd
.	16eee-)
16c 16e- 16g	(16ccJJ
=276	=276
8B 8d 8g	16ddLL)
.	(16cc#
8r	16dd)
.	(16eeJJ
8B 8d 8g	16ffLL)
.	(16aa#
8r	16bb)
.	(16ccc#JJ
8.r	16dddLL)
.	(16eee
.	16fff)
16B 16d 16g	(16ddJJ
=277	=277
8B- 8c 8e 8g	16eeLL)
.	(16dd#
8r	16ee)
.	(16ff#JJ
8B- 8c 8e 8g	16ggLL)
.	(16bb
8r	16ccc)
.	(16ddd#JJ
8.r	16eeeLL)
.	(16fff#
.	16ggg)
16B- 16c 16e 16g	(16eeJJ
=278	=278
8A 8c 8f	16ffLL)
.	(16ee
8r	16ff)
.	(16gg#JJ
8A 8c 8f	16aaLL)
.	(16bb
8r	16ccc)
.	(16eeeJJ
8.r	16fffLL)
.	(16ggg#
.	16aaa)
16A 16c 16f	(16ffJJ
=279	=279
8A- 8c 8e- 8f#	16ff#LL)
.	(16ee#
8r	16ff#)
.	(16bbJJ
8A- 8c 8e- 8f#	16cccLL)
.	(16ddd
8r	16eee-)
.	(16eee#JJ
8.r	16fff#LL)
.	(16eee#
.	16fff#)
16A- 16c 16e- 16f#	(16fff#JJ
=280	=280
*	*
*	*^
8G 8c 8e- 8g	16gggLL)	4r
.	(16gg	.
8r	16aa-)	.
.	(16ggJJ	.
8F 8A- 8c 8f	[2aa-)	16ddLL
.	.	16cc
8r	.	16dd
.	.	16ccJJ
4r	.	16ddLL
.	.	16cc
.	.	16dd
.	.	16ccJJ
*	*	*
*	*v	*v
=281	=281
*	*
*	*^
8.r	8.aa-L]	16ddLL
.	.	16cc
.	.	16dd
16f	16aa-Jk	16ccJJ
8a-	8ff	16ddLL
.	.	16cc
8r	8r	16dd
.	.	16ccJJ
8g	8gg	16ddLL
.	.	16cc
8r	8r	16dd
.	.	16ccJJ
=282	=282	=282
8.r	8.r	16ddLL
.	.	16cc
.	.	16dd
16f	16aa-	16ccJJ
8a-	8ff	16ddLL
.	.	16cc
8r	8r	16dd
.	.	16ccJJ
8g	8gg	16ddLL
.	.	16cc
8r	8r	16dd
.	.	16ccJJ
=283	=283	=283
8.r	8.r	16ddLL
.	.	16cc
.	.	16dd
16f	16aa-	16ccJJ
8a-	8ff	16ddLL
.	.	16cc
8r	8r	16dd
.	.	16ccJJ
8g	8gg	16ddLL
.	.	16b
8r	8r	16dd
.	.	16bJJ
*	*	*
*	*v	*v
=284	=284
4c	16ccLL
.	16ee-
.	16gg
.	16ee-JJ
4r	16ccLL
.	16ee-
.	16cc
.	16gJJ
4r	16e-LL
.	16g
.	16e-
.	16cJJ
*clefF4	*
=285	=285
*	*
*	*^
8.r	4r	16dLL
.	.	16c
.	.	16d
16AA-	.	16cJJ
8FF	8.r	16dLL
.	.	16c
8r	.	16d
.	16a-	16cJJ
8GG	8fL	16dLL
.	.	16c
8r	8gJ	16d
.	.	16cJJ
=286	=286	=286
8.r	4r	16dLL
.	.	16c
.	.	16d
16AA-	.	16cJJ
8FF	8.r	16dLL
.	.	16c
8r	.	16d
.	16a-	16cJJ
8GG	8fL	16dLL
.	.	16c
8r	8gJ	16d
.	.	16cJJ
*	*	*
*	*v	*v
=287	=287
*	*
*	*^
8.r	4r	16dLL
.	.	16c
.	.	16d
16AA-	.	16cJJ
8FF	8.r	16dLL
.	.	16c
8r	.	16d
.	16a-	16cJJ
4r	8f	16dLL
.	.	16c
.	8r	16d
.	.	16cJJ
=288	=288	=288
8.r	4r	16dLL
.	.	16B
.	.	16d
16GG	.	16BJJ
8GGG	8.r	16dLL
.	.	16B
8r	.	16d
.	16f#	16BJJ
4r	8g	16dLL
.	.	16B
.	8r	16d
.	.	16BJJ
*	*	*
*	*v	*v
=289	=289
8CC'	(24gLL
.	24c 24e-
.	24g
16r	24c 24e-
.	24g
16GG'	.
.	24cJJ) 24e-
8EE-'	(24gLL
.	24c 24e-
.	24g
16r	24c 24e-
.	24g
16C'	.
.	24cJJ) 24e-
8GG'	(24gLL
.	24c 24e-
.	24g
16r	24c 24e-
.	24g
16E-'	.
.	24cJJ) 24e-
=290	=290
8C	24gLL
.	24c 24e-
.	24g
16r	24c 24e-
.	24g
16G	.
.	24cJJ 24e-
8E-	24ccLL
.	24e- 24g
.	24cc
16r	24e- 24g
.	24cc
16c	.
.	24e-JJ 24g
8GG	24bLL
.	24d 24g
.	24b
16r	24d 24g
.	24b
16F	.
.	24dJJ 24g
=291	=291
8C	24ggLL
.	24cc 24ee-
.	24gg
16r	24cc 24ee-
.	24gg
16G	.
.	24ccJJ 24ee-
8E-	24ggLL
.	24cc 24ee-
.	24gg
16r	24cc 24ee-
.	24gg
16c	.
.	24ccJJ 24ee-
8G	24ggLL
.	24cc 24ee-
.	24gg
16r	24cc 24ee-
.	24gg
16e-	.
.	24ccJJ 24ee-
*clefG2	*
=292	=292
8c	24ggLL
.	24cc 24ee-
.	24gg
16r	24cc 24ee-
.	24gg
16g	.
.	24ccJJ 24ee-
8e-	24cccLL
.	24ee- 24gg
.	24ccc
16r	24ee- 24gg
.	24ccc
16cc	.
.	24ee-JJ 24gg
8G	24bbLL
.	24dd 24gg
.	24bb
16r	24dd 24gg
.	24bb
16f	.
.	24ddJJ 24gg
*clefF4	*
=293	=293
24CLL	8ccc
24E-	.
24GJ	.
24cL	8r
24G	.
24E-JJ	.
24GGLL	8ee-
24E-	.
24GJ	.
24cL	8r
24G	.
24E-JJ	.
24CLL	8gg
24E-	.
24GJ	.
24cL	8r
24G	.
24E-JJ	.
=294	=294
24DLL	(8.ffL
24F	.
24GJ	.
24BL	.
24G	.
.	16ee-Jk)
24FJJ	.
24GGLL	8dd
24F	.
24GJ	.
24BL	8r
24G	.
24FJJ	.
24DLL	8gg
24F	.
24GJ	.
24BL	8r
24G	.
24FJJ	.
=295	=295
*	*
*	*^
24CLL	2.cc	8c
24E-	.	.
24GJ	.	.
24cL	.	8r
24G	.	.
24E-JJ	.	.
24GGLL	.	8e-
24E-	.	.
24GJ	.	.
24cL	.	8r
24G	.	.
24E-JJ	.	.
24CLL	.	8g
24E-	.	.
24GJ	.	.
24cL	.	8r
24G	.	.
24E-JJ	.	.
=296	=296	=296
24DLL	2.b	(8.fL
24F	.	.
24GJ	.	.
24BL	.	.
24G	.	.
.	.	16e-Jk)
24FJJ	.	.
24GGLL	.	8d
24F	.	.
24GJ	.	.
24BL	.	8r
24G	.	.
24FJJ	.	.
24DLL	.	8g
24F	.	.
24GJ	.	.
24BL	.	8r
24G	.	.
24FJJ	.	.
*	*	*
*	*v	*v
=297	=297
16CCLL	8c
16C 16E-	.
16GG 16G	8r
16CJJ 16E-	.
16GGLL 16G	4..cc 4..ccc
16C 16E-	.
16GG 16G	.
16CJJ 16E-	.
16GGLL 16G	.
16C 16E-	.
16GG 16G	.
16CJJ 16E-	16ee- 16eee-
=298	=298
16CCLL	8cc 8ccc
16C 16E-	.
16GG 16G	8r
16CJJ 16E-	.
16GGLL 16G	4..cc 4..ccc
16C 16E-	.
16GG 16G	.
16CJJ 16E-	.
16GGLL 16G	.
16C 16E-	.
16GG 16G	.
16CJJ 16E-	16ee- 16eee-
=299	=299
16GGGLL	([4gg [4ggg
16BB 16D	.
16GG 16G	.
16BBJJ 16D	.
16GGLL 16G	8ggL] 8ggg]
16BB 16D	.
16GG 16G	8aa-J) 8aaa-
16BBJJ 16D	.
16GGLL 16G	(8ff'L 8fff'
16BB 16D	.
16GG 16G	8dd'J) 8ddd'
16BBJJ 16D	.
=300	=300
16CCLL	(8ddL 8ddd
16C 16E-	.
16GG 16G	8ee-J) 8eee-
16CJJ 16E-	.
16GGLL 16G	4..cc 4..ccc
16C 16E-	.
16GG 16G	.
16CJJ 16E-	.
16GGLL 16G	.
16C 16E-	.
16GG 16G	.
16CJJ 16E-	16ee- 16eee-
=301	=301
16GGGLL	([4gg [4ggg
16BB 16D	.
16GG 16G	.
16BBJJ 16D	.
16GGLL 16G	8ggL] 8ggg]
16BB 16D	.
16GG 16G	8aa-J) 8aaa-
16BBJJ 16D	.
16GGLL 16G	(8ff'L 8fff'
16BB 16D	.
16GG 16G	8dd'J) 8ddd'
16BBJJ 16D	.
=302	=302
16CCLL	(8ddL 8ddd
16C 16E-	.
16GG 16G	8ee-J) 8eee-
16CJJ 16E-	.
16GGLL 16G	4..cc 4..ccc
16C 16E-	.
16GG 16G	.
16CJJ 16E-	.
16GGLL 16G	.
16C 16E-	.
16GG 16G	.
16CJJ 16E-	16ee- 16eee-
=303	=303
8GGL 8BB 8D 8G	8gg 8ggg
8A-'J 8a-'	16r
.	16aa- 16aaa-
8F'L 8f'	16r
.	16ff 16fff
8D'J 8d'	16r
.	16dd 16ddd
8BB'L 8B'	16r
.	16b 16bb
8AA-'J 8A-'	16r
.	16a- 16aa-
=304	=304
8FFL 8F	16r
.	16f 16ff
8DDJ 8D	16r
.	16d 16dd
8BBBL 8BB	16r
.	16B 16b
8AAA-J 8AA-	16r
.	16A- 16a-
8GGGL 8GG	16r
.	16G 16g
8GGJ 8BBn 8D 8G	16r
.	16B 16d 16g 16b
=305	=305
4C 4E- 4G	4c 4e- 4g 4cc
4r	4r
*	*clefF4
8GG	8D 8G 8B
8r	8r
=306	=306
8CC	8E- 8G 8c
8r	8r
4r	4r
4r	4r
==	==
*-	*-
